X: 13192
T: First Steps, The
R: jig
M: 6/8
K: Amixolydian
|:ABd efg|afd gdB|ABd efg|dge BdB|
ABd BAB|eaf gdB|Aaa edB|GAB ~A3:|
|:eAA ABd|eAA gea|eAA ABd|eag ~a3|
eAA gea|gea ged|Aaa edB|GAB ~A3:|

